brandFactory_export/3.Masa/(1)Euro_Moneda_3Masa.svg

<?xml version="1.0" encoding="UTF-8"?>
<svg width="24px" height="24px" viewBox="0 0 24 24" version="1.1" xmlns="http://www.w3.org/2000/svg" xmlns:xlink="http://www.w3.org/1999/xlink">
    <title>3.Masa/(1)Euro_Moneda_3Masa</title>
    <g id="Symbols" stroke="none" stroke-width="1" fill="none" fill-rule="evenodd">
        <g id="3.Masa/(1)Euro_Moneda_3Masa" fill="#5CB615" fill-rule="nonzero">
            <path d="M22.3327731,20.3596639 C21.989916,19.5966387 21.1294118,19.2638655 20.4067227,19.6268908 C19.1966387,20.2285714 17.6705882,20.5310924 15.8789916,20.5310924 C11.8823529,20.5310924 9.38487395,19.0319328 8.2789916,16.0268908 L14.1378151,16.0268908 C14.9411765,16.0268908 15.5831933,15.3411765 15.5831933,14.497479 C15.5831933,13.6537815 14.9378151,12.9714286 14.1378151,12.9714286 L7.67394958,12.9714286 C7.65042017,12.5815126 7.60336134,12.2117647 7.60336134,11.7915966 C7.60336134,11.6840336 7.62016807,11.5966387 7.62352941,11.492437 L14.1378151,11.492437 C14.9411765,11.492437 15.5831933,10.8067227 15.5831933,9.96302521 C15.5831933,9.11932773 14.9378151,8.43697479 14.1378151,8.43697479 L8.00672269,8.43697479 C8.92773109,4.84369748 11.5092437,3.05546218 15.8789916,3.05546218 C17.6504202,3.05546218 19.1596639,3.35462185 20.3630252,3.9394958 C21.0890756,4.29915966 21.9495798,3.95966387 22.2823529,3.19663866 C22.6184874,2.4302521 22.302521,1.52268908 21.5764706,1.16638655 C19.989916,0.393277311 18.0739496,0 15.8823529,0 C9.82184874,0 6.06722689,2.97142857 5.02184874,8.44369748 L3.47563025,8.44369748 C2.67563025,8.44369748 2.0302521,9.12941176 2.0302521,9.9697479 C2.0302521,10.8134454 2.67563025,11.4991597 3.47563025,11.4991597 L4.72268908,11.4991597 C4.72268908,11.6 4.71260504,11.6941176 4.71260504,11.7983193 C4.71260504,12.2016807 4.72941176,12.5915966 4.75294118,12.9781513 L3.47563025,12.9781513 C2.67563025,12.9781513 2.0302521,13.6605042 2.0302521,14.5042017 C2.0302521,15.3478992 2.67563025,16.0336134 3.47563025,16.0336134 L5.21344538,16.0336134 C6.48403361,20.9378151 10.1579832,23.589916 15.8823529,23.589916 C18.107563,23.589916 20.0436975,23.189916 21.6436975,22.3932773 C22.3663866,22.0336134 22.6722689,21.1226891 22.3327731,20.3596639" id="Path"></path>
        </g>
    </g>
</svg>

<svg width="24" height="24" viewBox="0 0 24 24" xmlns="http://www.w3.org/2000/svg"><path d="M22.333 20.36c-.343-.763-1.204-1.096-1.926-.733-1.21.602-2.736.904-4.528.904-3.997 0-6.494-1.5-7.6-4.504h5.859c.803 0 1.445-.686 1.445-1.53 0-.843-.645-1.526-1.445-1.526H7.674c-.024-.39-.07-.76-.07-1.18 0-.107.016-.194.02-.299h6.514c.803 0 1.445-.685 1.445-1.529 0-.844-.645-1.526-1.445-1.526H8.007c.92-3.593 3.502-5.382 7.872-5.382 1.771 0 3.28.3 4.484.884.726.36 1.587.02 1.92-.742.335-.767.02-1.674-.707-2.03C19.99.392 18.074 0 15.882 0c-6.06 0-9.815 2.971-10.86 8.444H3.476c-.8 0-1.446.685-1.446 1.526 0 .843.646 1.53 1.446 1.53h1.247c0 .1-.01.194-.01.298 0 .404.016.794.04 1.18H3.476c-.8 0-1.446.683-1.446 1.526 0 .844.646 1.53 1.446 1.53h1.737c1.271 4.904 4.945 7.556 10.67 7.556 2.225 0 4.16-.4 5.76-1.197.723-.36 1.03-1.27.69-2.033" fill="#5CB615" fill-rule="nonzero"/></svg>
